assets/myanimelist/mono.svg

<svg viewBox="0 0 24 24" xmlns="http://www.w3.org/2000/svg"><path d="m14.921 6.479c-.82 0-3.683 0-4.947 3.156-.662 1.652-.986 4.812.876 7.886l1.934-1.41s-.767-1.095-1.083-3.191h2.897l.022 3.19h2.604v-7.275h-2.581v2.043l-2.46-.023s.413-2.408 2.877-2.336h2.454l-.572-2.04zm-14.921.049v9.624h2.348v-5.84l2.031 2.664 2.047-2.652v5.828h2.336v-9.624h-2.325l-2.069 2.946-2.058-2.946zm18.447.022v9.583h5.022l.531-2.043h-3.232v-7.54z"/></svg>

<svg xmlns="http://www.w3.org/2000/svg" viewBox="0 0 24 24"><path d="M14.921 6.479c-.82 0-3.683 0-4.947 3.156-.662 1.652-.986 4.812.876 7.886l1.934-1.41s-.767-1.095-1.083-3.191h2.897l.022 3.19h2.604V8.835h-2.581v2.043l-2.46-.023s.413-2.408 2.877-2.336h2.454l-.572-2.04zM0 6.528v9.624h2.348v-5.84l2.031 2.664 2.047-2.652v5.828h2.336V6.528H6.437L4.368 9.474 2.31 6.528zm18.447.022v9.583h5.022L24 14.09h-3.232V6.55z"/></svg>
